shared/images/iconfont/kb-iconfont-identity-github-16.svg

<?xml version="1.0" encoding="UTF-8"?>
<svg width="16px" height="16px" viewBox="0 0 16 16" version="1.1" xmlns="http://www.w3.org/2000/svg" xmlns:xlink="http://www.w3.org/1999/xlink">
    <!-- Generator: sketchtool 41.2 (35397) - http://www.bohemiancoding.com/sketch -->
    <title>4F434AA3-B21E-42B3-B25C-AD9FC34D9AE4</title>
    <desc>Created with sketchtool.</desc>
    <defs></defs>
    <g id="Icons" stroke="none" stroke-width="1" fill="none" fill-rule="evenodd">
        <g id="Style-guide---Desktop---Icons-2" transform="translate(-340.000000, -1087.000000)">
            <g id="kb-iconfont-identity-github-16" transform="translate(340.000000, 1087.000000)">
                <rect id="icon-area" fill="#D8D8D8" opacity="0" x="0" y="0" width="16" height="16"></rect>
                <path d="M1,8.1779661 C1,11.3492607 3.00571306,14.0398687 5.78702722,14.9889987 C6.13686494,15.0554437 6.26530105,14.8332867 6.26530105,14.6436984 C6.26530105,14.472653 6.25892561,13.9070975 6.25579585,13.3073092 C4.30838908,13.7415198 3.89746307,12.4604024 3.89746307,12.4604024 C3.57903888,11.6308497 3.12023912,11.4101191 3.12023912,11.4101191 C2.4851295,10.9646164 3.16811287,10.9737689 3.16811287,10.9737689 C3.87103398,11.024405 4.24115718,11.7135792 4.24115718,11.7135792 C4.86548652,12.8108138 5.87871763,12.4935655 6.27816785,12.3101582 C6.34111082,11.8463504 6.52240511,11.5295775 6.72259389,11.3503304 C5.16779824,11.1689438 3.53336756,10.5533466 3.53336756,7.80294982 C3.53336756,7.01939758 3.80681592,6.37895774 4.25460356,5.8762814 C4.18192356,5.69548909 3.94232298,4.9654257 4.32253097,3.976714 C4.32253097,3.976714 4.91034643,3.78391641 6.24791349,4.71260173 C6.80628602,4.55356154 7.4051136,4.47380372 8,4.47095099 C8.5948864,4.47380372 9.19417765,4.55356154 9.75359343,4.71260173 C11.0896536,3.78391641 11.6766576,3.976714 11.6766576,3.976714 C12.057677,4.9654257 11.8180764,5.69548909 11.7453964,5.8762814 C12.1942273,6.37895774 12.4657051,7.01939758 12.4657051,7.80294982 C12.4657051,10.5600029 10.8282606,11.1669231 9.26940783,11.344625 C9.5204842,11.5673763 9.74420415,12.0042019 9.74420415,12.6738823 C9.74420415,13.6343044 9.73620587,14.4072777 9.73620587,14.6436984 C9.73620587,14.8348319 9.86220772,15.0586531 10.216914,14.9881666 C12.9968371,14.0379669 15,11.3483097 15,8.1779661 C15,4.21349132 11.8659502,1 8,1 C4.13451348,1 1,4.21349132 1,8.1779661 Z" id="Icon-github" fill="#000000"></path>
            </g>
        </g>
    </g>
</svg>

<svg xmlns="http://www.w3.org/2000/svg" width="16" height="16" viewBox="0 0 16 16">
    <path fill="#000" fill-rule="evenodd" d="M1 8.178c0 3.171 2.006 5.862 4.787 6.811.35.066.478-.156.478-.345 0-.171-.006-.737-.01-1.337-1.947.435-2.358-.847-2.358-.847-.318-.83-.777-1.05-.777-1.05-.635-.445.048-.436.048-.436.703.05 1.073.74 1.073.74.624 1.097 1.638.78 2.037.596.063-.464.244-.78.445-.96-1.555-.181-3.19-.797-3.19-3.547 0-.784.274-1.424.722-1.927-.073-.18-.313-.91.068-1.9 0 0 .587-.192 1.925.737A6.559 6.559 0 0 1 8 4.47a6.575 6.575 0 0 1 1.754.242c1.336-.93 1.923-.736 1.923-.736.38.988.141 1.718.068 1.9.45.502.72 1.142.72 1.926 0 2.757-1.637 3.364-3.196 3.542.251.222.475.66.475 1.329 0 .96-.008 1.733-.008 1.97 0 .19.126.415.48.344 2.78-.95 4.784-3.64 4.784-6.81C15 4.213 11.866 1 8 1 4.135 1 1 4.213 1 8.178z"/>
</svg>
